communes/29.svg

<?xml version="1.0" encoding="UTF-8" standalone="no"?>
<svg
   xmlns:dc="http://purl.org/dc/elements/1.1/"
   xmlns:cc="http://creativecommons.org/ns#"
   xmlns:rdf="http://www.w3.org/1999/02/22-rdf-syntax-ns#"
   xmlns:svg="http://www.w3.org/2000/svg"
   xmlns="http://www.w3.org/2000/svg"
   xmlns:sodipodi="http://sodipodi.sourceforge.net/DTD/sodipodi-0.dtd"
   xmlns:inkscape="http://www.inkscape.org/namespaces/inkscape"
   version="1.0"
   width="210.66693"
   height="246.76352"
   id="svg2780"
   sodipodi:docname="29.svg">
  <metadata
     id="metadata24">
    <rdf:RDF>
      <cc:Work
         rdf:about="">
        <dc:format>image/svg+xml</dc:format>
        <dc:type
           rdf:resource="http://purl.org/dc/dcmitype/StillImage" />
      </cc:Work>
    </rdf:RDF>
  </metadata>
  <sodipodi:namedview
     pagecolor="#ffffff"
     bordercolor="#666666"
     borderopacity="1"
     objecttolerance="10"
     gridtolerance="10"
     guidetolerance="10"
     inkscape:pageopacity="0"
     inkscape:pageshadow="2"
     inkscape:window-width="640"
     inkscape:window-height="480"
     id="namedview22" />
  <defs
     id="defs2782" />
  <g
     transform="translate(-17.716535,-804.33069)"
     id="layer1">
    <path
       d="M 18.716535,805.33069 L 22.510476,964.71155 C 25.220426,1078.5551 220.87956,1078.5551 223.58952,964.71155 L 227.38346,805.33069 L 18.716535,805.33069 z"
       id="path3282"
       style="fill:#2163c0;fill-opacity:1;fill-rule:evenodd;stroke:#000000;stroke-width:2;stroke-linecap:butt;stroke-miterlimit:4;stroke-dashoffset:0;stroke-opacity:1" />
    <g
       transform="matrix(-1,0,0,0.9625253,249.93037,35.803167)"
       id="use2768">
      <path
         d="M 156.23114,52.125413 C 191.67848,10.996616 264.03882,39.716776 194.31909,140.64464 C 191.19919,135.13354 187.68183,129.22786 184.09176,125.12732 C 192.23062,91.775774 197.49497,58.672386 156.23114,52.125413 z"
         transform="translate(0,804.33069)"
         id="path2772"
         style="fill:#ffffff;fill-opacity:1;fill-rule:evenodd;stroke:#000000;stroke-width:1.01928103px;stroke-linecap:butt;stroke-linejoin:miter;stroke-opacity:1" />
      <path
         d="M 199.58702,139.52694 L 201.37241,188.16641 C 201.44229,190.07006 198.18731,191.6049 194.23092,191.6049 C 190.27454,191.6049 187.01955,190.07006 187.08943,188.16641 L 188.8748,139.52694 L 199.58702,139.52694 z"
         transform="translate(0,804.33069)"
         id="path2774"
         style="color:#000000;fill:#ebdc39;fill-opacity:1;fill-rule:evenodd;stroke:#000000;stroke-width:1.01928115px;stroke-linecap:butt;stroke-linejoin:miter;marker:none;marker-start:none;marker-mid:none;marker-end:none;stroke-miterlimit:4;stroke-dashoffset:0;stroke-opacity:1;visibility:visible;display:inline;overflow:visible;enable-background:accumulate" />
      <rect
         width="17.633312"
         height="9.5219879"
         ry="1.0579987"
         x="184.97343"
         y="937.39294"
         id="rect2776"
         style="opacity:1;color:#000000;fill:#ffffff;fill-opacity:1;fill-rule:evenodd;stroke:#000000;stroke-width:1.01928115px;stroke-linecap:butt;stroke-linejoin:miter;marker:none;marker-start:none;marker-mid:none;marker-end:none;stroke-miterlimit:4;stroke-dasharray:none;stroke-dashoffset:0;stroke-opacity:1;visibility:visible;display:inline;overflow:visible;enable-background:accumulate" />
    </g>
    <g
       transform="translate(-72.09,-16.692344)"
       id="use2778">
      <path
         d="M 156.23114,52.125413 C 191.67848,10.996616 264.03882,39.716776 194.31909,140.64464 C 191.19919,135.13354 187.68183,129.22786 184.09176,125.12732 C 192.23062,91.775774 197.49497,58.672386 156.23114,52.125413 z"
         transform="translate(0,804.33069)"
         id="path3736"
         style="fill:#ffffff;fill-opacity:1;fill-rule:evenodd;stroke:#000000;stroke-width:1px;stroke-linecap:butt;stroke-linejoin:miter;stroke-opacity:1" />
      <path
         d="M 199.58702,139.52694 L 201.37241,188.16641 C 201.44229,190.07006 198.18731,191.6049 194.23092,191.6049 C 190.27454,191.6049 187.01955,190.07006 187.08943,188.16641 L 188.8748,139.52694 L 199.58702,139.52694 z"
         transform="translate(0,804.33069)"
         id="path3738"
         style="color:#000000;fill:#ebdc39;fill-opacity:1;fill-rule:evenodd;stroke:#000000;stroke-width:1.00000012px;stroke-linecap:butt;stroke-linejoin:miter;marker:none;marker-start:none;marker-mid:none;marker-end:none;stroke-miterlimit:4;stroke-dashoffset:0;stroke-opacity:1;visibility:visible;display:inline;overflow:visible;enable-background:accumulate" />
      <rect
         width="17.633312"
         height="9.5219879"
         ry="1.0579987"
         x="184.97343"
         y="937.39294"
         id="rect3740"
         style="opacity:1;color:#000000;fill:#ffffff;fill-opacity:1;fill-rule:evenodd;stroke:#000000;stroke-width:1.00000012px;stroke-linecap:butt;stroke-linejoin:miter;marker:none;marker-start:none;marker-mid:none;marker-end:none;stroke-miterlimit:4;stroke-dasharray:none;stroke-dashoffset:0;stroke-opacity:1;visibility:visible;display:inline;overflow:visible;enable-background:accumulate" />
    </g>
    <g
       transform="matrix(1,0,0,0.9625253,-4.70513,35.740372)"
       id="use2780">
      <path
         d="M 164.15395,52.125413 C 191.62136,7.8876359 265.53506,43.862083 194.31909,140.64464 C 191.19919,135.13354 187.68183,129.22786 184.09176,125.12732 C 195.22309,100.06639 195.44287,60.745039 164.15395,52.125413 z"
         transform="translate(0,804.33069)"
         id="path3744"
         style="fill:#ffffff;fill-opacity:1;fill-rule:evenodd;stroke:#000000;stroke-width:1.01928103px;stroke-linecap:butt;stroke-linejoin:miter;stroke-opacity:1" />
      <path
         d="M 199.58702,139.52694 L 201.37241,188.16641 C 201.44229,190.07006 198.18731,191.6049 194.23092,191.6049 C 190.27454,191.6049 187.01955,190.07006 187.08943,188.16641 L 188.8748,139.52694 L 199.58702,139.52694 z"
         transform="translate(0,804.33069)"
         id="path3746"
         style="color:#000000;fill:#ebdc39;fill-opacity:1;fill-rule:evenodd;stroke:#000000;stroke-width:1.01928115px;stroke-linecap:butt;stroke-linejoin:miter;marker:none;marker-start:none;marker-mid:none;marker-end:none;stroke-miterlimit:4;stroke-dashoffset:0;stroke-opacity:1;visibility:visible;display:inline;overflow:visible;enable-background:accumulate" />
      <rect
         width="17.633312"
         height="9.5219879"
         ry="1.0579987"
         x="184.97343"
         y="937.39294"
         id="rect3748"
         style="opacity:1;color:#000000;fill:#ffffff;fill-opacity:1;fill-rule:evenodd;stroke:#000000;stroke-width:1.01928115px;stroke-linecap:butt;stroke-linejoin:miter;marker:none;marker-start:none;marker-mid:none;marker-end:none;stroke-miterlimit:4;stroke-dasharray:none;stroke-dashoffset:0;stroke-opacity:1;visibility:visible;display:inline;overflow:visible;enable-background:accumulate" />
    </g>
    <g
       transform="translate(0.167923,0)"
       id="g3761"
       style="fill:#ebdc39;fill-opacity:1">
      <path
         d="M 70.625,193.6875 C 65.391261,193.55824 60.679866,195.2024 57.25,199.28125 C 51.301209,206.35562 50.720862,219.30576 57.46875,226.4375 C 61.363696,229.16442 65.501381,231.60036 69.8125,233.75 C 69.869997,233.7781 69.910923,233.81554 69.96875,233.84375 C 71.253979,234.48177 72.558642,235.10068 73.875,235.6875 C 88.990796,242.426 106.0775,245.76242 123.15625,245.75 C 124.52807,234.70271 97.247288,203.97128 87.125,198.625 C 81.5994,195.70657 75.858739,193.81676 70.625,193.6875 z"
         transform="translate(-0.167923,804.33069)"
         id="path3783"
         style="color:#000000;fill:#ebdc39;fill-opacity:1;fill-rule:evenodd;stroke:#000000;stroke-width:0.9999999pt;stroke-linecap:butt;stroke-linejoin:miter;marker:none;marker-start:none;marker-mid:none;marker-end:none;stroke-miterlimit:4;stroke-dashoffset:0;stroke-opacity:1;visibility:visible;display:inline;overflow:visible;enable-background:accumulate" />
      <path
         d="M 175.46875,193.6875 C 170.23501,193.81676 164.49435,195.70657 158.96875,198.625 C 148.84647,203.97128 121.56568,234.70271 122.9375,245.75 C 141.50447,245.76788 160.07811,241.80459 176.125,233.84375 C 176.19174,233.81119 176.2462,233.78241 176.3125,233.75 C 180.62362,231.60036 184.73005,229.16442 188.625,226.4375 C 195.37288,219.30576 194.79254,206.35562 188.84375,199.28125 C 185.41388,195.2024 180.70249,193.55824 175.46875,193.6875 z"
         transform="translate(-0.167923,804.33069)"
         id="path3766"
         style="color:#000000;fill:#ebdc39;fill-opacity:1;fill-rule:evenodd;stroke:#000000;stroke-width:0.9999999pt;stroke-linecap:butt;stroke-linejoin:miter;marker:none;marker-start:none;marker-mid:none;marker-end:none;stroke-miterlimit:4;stroke-dashoffset:0;stroke-opacity:1;visibility:visible;display:inline;overflow:visible;enable-background:accumulate" />
      <path
         d="M 122.88207,1049.86 C 142.59047,1049.86 148.54262,1034.6456 149.95328,1015.2906 C 151.09035,999.68927 138.35847,986.95248 122.88207,986.95248 C 107.40567,986.95248 94.673788,999.68931 95.810862,1015.2906 C 97.221523,1034.6456 103.17367,1049.86 122.88207,1049.86 z"
         id="path3754"
         style="color:#000000;fill:#ebdc39;fill-opacity:1;fill-rule:evenodd;stroke:#000000;stroke-width:0.9999999pt;stroke-linecap:butt;stroke-linejoin:miter;marker:none;marker-start:none;marker-mid:none;marker-end:none;stroke-miterlimit:4;stroke-dashoffset:0;stroke-opacity:1;visibility:visible;display:inline;overflow:visible;enable-background:accumulate" />
    </g>
  </g>
</svg>

<?xml version="1.0" encoding="UTF-8"?>
<svg version="1.0" viewBox="0 0 210.67 246.76" xmlns="http://www.w3.org/2000/svg" xmlns:cc="http://creativecommons.org/ns#" xmlns:dc="http://purl.org/dc/elements/1.1/" xmlns:rdf="http://www.w3.org/1999/02/22-rdf-syntax-ns#">
<metadata>
<rdf:RDF>
<cc:Work rdf:about="">
<dc:format>image/svg+xml</dc:format>
<dc:type rdf:resource="http://purl.org/dc/dcmitype/StillImage"/>
</cc:Work>
</rdf:RDF>
</metadata>
<g transform="translate(-17.717 -804.33)" fill-rule="evenodd" stroke="#000">
<path d="m18.717 805.33 3.7939 159.38c2.71 113.84 198.37 113.84 201.08 0l3.7939-159.38h-208.67z" fill="#2163c0" stroke-width="2"/>
<g transform="matrix(-1 0 0 .96253 249.93 35.803)">
<path transform="translate(0 804.33)" d="m156.23 52.125c35.447-41.129 107.81-12.409 38.088 88.519-3.1199-5.5111-6.6373-11.417-10.227-15.517 8.1389-33.352 13.403-66.455-27.861-73.002z" fill="#fff" stroke-width="1.0193px"/>
<path transform="translate(0 804.33)" d="m199.59 139.53 1.7854 48.639c0.06988 1.9036-3.1851 3.4385-7.1415 3.4385-3.9564 0-7.2114-1.5348-7.1415-3.4385l1.7854-48.639h10.712z" color="#000000" fill="#ebdc39" stroke-width="1.0193px"/>
<rect x="184.97" y="937.39" width="17.633" height="9.522" ry="1.058" color="#000000" fill="#fff" stroke-width="1.0193px"/>
</g>
<g transform="translate(-72.09 -16.692)">
<path transform="translate(0 804.33)" d="m156.23 52.125c35.447-41.129 107.81-12.409 38.088 88.519-3.1199-5.5111-6.6373-11.417-10.227-15.517 8.1389-33.352 13.403-66.455-27.861-73.002z" fill="#fff" stroke-width="1px"/>
<path transform="translate(0 804.33)" d="m199.59 139.53 1.7854 48.639c0.06988 1.9036-3.1851 3.4385-7.1415 3.4385-3.9564 0-7.2114-1.5348-7.1415-3.4385l1.7854-48.639h10.712z" color="#000000" fill="#ebdc39" stroke-width="1px"/>
<rect x="184.97" y="937.39" width="17.633" height="9.522" ry="1.058" color="#000000" fill="#fff" stroke-width="1px"/>
</g>
<g transform="matrix(1 0 0 .96253 -4.7051 35.74)">
<path transform="translate(0 804.33)" d="m164.15 52.125c27.467-44.238 101.38-8.2633 30.165 88.519-3.1199-5.5111-6.6373-11.417-10.227-15.517 11.131-25.061 11.351-64.382-19.938-73.002z" fill="#fff" stroke-width="1.0193px"/>
<path transform="translate(0 804.33)" d="m199.59 139.53 1.7854 48.639c0.06988 1.9036-3.1851 3.4385-7.1415 3.4385-3.9564 0-7.2114-1.5348-7.1415-3.4385l1.7854-48.639h10.712z" color="#000000" fill="#ebdc39" stroke-width="1.0193px"/>
<rect x="184.97" y="937.39" width="17.633" height="9.522" ry="1.058" color="#000000" fill="#fff" stroke-width="1.0193px"/>
</g>
<g transform="translate(.16792)" fill="#ebdc39" stroke-width="1pt">
<path transform="translate(-.16792 804.33)" d="m70.625 193.69c-5.2337-0.12926-9.9451 1.5149-13.375 5.5938-5.9488 7.0744-6.5291 20.025 0.21875 27.156 3.8949 2.7269 8.0326 5.1629 12.344 7.3125 0.057497 0.0281 0.098423 0.06554 0.15625 0.09375 1.2852 0.63802 2.5899 1.2569 3.9062 1.8438 15.116 6.7385 32.202 10.075 49.281 10.062 1.3718-11.047-25.909-41.779-36.031-47.125-5.5256-2.9184-11.266-4.8082-16.5-4.9375z" color="#000000"/>
<path transform="translate(-.16792 804.33)" d="m175.47 193.69c-5.2337 0.12926-10.974 2.0191-16.5 4.9375-10.122 5.3463-37.403 36.078-36.031 47.125 18.567 0.01788 37.141-3.9454 53.188-11.906 0.06674-0.03256 0.1212-0.06134 0.1875-0.09375 4.3111-2.1496 8.4176-4.5856 12.312-7.3125 6.7479-7.1317 6.1675-20.082 0.21875-27.156-3.4299-4.0788-8.1413-5.723-13.375-5.5938z" color="#000000"/>
<path d="m122.88 1049.9c19.708 0 25.661-15.214 27.071-34.569 1.1371-15.601-11.595-28.338-27.071-28.338s-28.208 12.737-27.071 28.338c1.4107 19.355 7.3628 34.569 27.071 34.569z" color="#000000"/>
</g>
</g>
</svg>
